src/22/panel/rocketchat-tray-alert.svg

<svg xmlns="http://www.w3.org/2000/svg" width="22" height="22" version="1.1">
 <defs>
  <style id="current-color-scheme" type="text/css">
   .ColorScheme-Text { color:#dfdfdf; } .ColorScheme-Highlight { color:#5294e2; }
  </style>
 </defs>
 <path style="fill:currentColor" class="ColorScheme-Text" d="M 3,3 C 3.625289,3.9191748 4.0814606,5.662158 4.3378906,7.681641 3.4662891,8.664932 3.0008959,9.819243 3,11 3.00265,12.214174 3.4964048,13.399175 4.4160156,14.398438 4.1963716,16.38357 3.740364,18.093055 3,19 5.101032,19 7.0025374,18.106296 8.3808594,16.662109 9.2226815,16.883472 10.107941,16.997678 11,17 15.418278,17 19,14.313708 19,11 19,7.686291 15.418278,5 11,5 10.107941,5.0023218 9.2226815,5.1165275 8.3808594,5.3378906 7.0025374,3.8937041 5.101032,3 3,3 Z m 8,4 a 6,4 0 0 1 0.652344,0.02539 c 0.0045,3.41e-4 0.0092,-3.48e-4 0.01367,0 a 6,4 0 0 1 0.05664,0.0059 6,4 0 0 1 5.175782,3.248047 c 0.0031,0.01117 0.0087,0.02201 0.01172,0.0332 A 6,4 0 0 1 17,11 6,4 0 0 1 16.91602,11.642578 c -0.0068,0.0274 -0.01184,0.05472 -0.01953,0.08203 A 6,4 0 0 1 16.625,12.375 6,4 0 0 1 12.324219,14.896484 c -0.004,6.36e-4 -0.0077,0.0013 -0.01172,0.002 a 6,4 0 0 1 -0.03125,0.0039 6,4 0 0 1 -0.482422,0.05664 c -0.07783,0.0073 -0.155536,0.01433 -0.234375,0.01953 A 6,4 0 0 1 11.015625,15 l -0.0098,0 A 6,4 0 0 1 11,15 6,4 0 0 1 8.4160156,14.603516 L 7.7480469,14.427734 6.9335938,15.28125 c -0.2143292,0.224571 -0.4977484,0.342544 -0.7402344,0.527344 0.06099,-0.40272 0.1643575,-0.768464 0.2109375,-1.189453 l 0.099609,-0.90625 -0.2460937,-0.267579 A 6,4 0 0 1 5.0605469,11.533203 c -0.00494,-0.02341 -0.00745,-0.04693 -0.011719,-0.07031 A 6,4 0 0 1 5,11 6,4 0 0 1 5.046875,10.523438 c 0.00351,-0.01891 0.00972,-0.03771 0.013672,-0.05664 A 6,4 0 0 1 11,7 Z m -3,3 c -0.5522847,0 -1,0.447715 -1,1 0,0.552285 0.4477153,1 1,1 0.5522847,0 1,-0.447715 1,-1 0,-0.552285 -0.4477153,-1 -1,-1 z m 3,0 c -0.552285,0 -1,0.447715 -1,1 0,0.552285 0.447715,1 1,1 0.552285,0 1,-0.447715 1,-1 0,-0.552285 -0.447715,-1 -1,-1 z m 3,0 c -0.552285,0 -1,0.447715 -1,1 0,0.552285 0.447715,1 1,1 0.552285,0 1,-0.447715 1,-1 0,-0.552285 -0.447715,-1 -1,-1 z"/>
 <circle style="fill:currentColor" class="ColorScheme-Highlight" cx="19" cy="18" r="2"/>
</svg>

<svg xmlns="http://www.w3.org/2000/svg" width="22" height="22"><path d="M3 3c.625.92 1.081 2.662 1.338 4.682C3.466 8.665 3 9.819 3 11c.003 1.214.496 2.4 1.416 3.398C4.196 16.384 3.74 18.093 3 19c2.101 0 4.003-.894 5.38-2.338.843.221 1.728.336 2.62.338 4.418 0 8-2.686 8-6s-3.582-6-8-6c-.892.002-1.777.117-2.62.338C7.004 3.894 5.102 3 3 3zm8 4a6 4 0 0 1 .652.025h.014a6 4 0 0 1 .057.006 6 4 0 0 1 5.175 3.248c.004.012.01.022.012.034A6 4 0 0 1 17 11a6 4 0 0 1-.084.643c-.007.027-.012.054-.02.082a6 4 0 0 1-.271.65 6 4 0 0 1-4.3 2.521l-.013.002a6 4 0 0 1-.03.004 6 4 0 0 1-.483.057 8.471 8.471 0 0 1-.235.02 6 4 0 0 1-.548.021h-.01A6 4 0 0 1 11 15a6 4 0 0 1-2.584-.396l-.668-.176-.814.853c-.215.225-.498.343-.74.528.06-.403.164-.769.21-1.19l.1-.906-.246-.268a6 4 0 0 1-1.197-1.912c-.005-.023-.008-.047-.012-.07A6 4 0 0 1 5 11a6 4 0 0 1 .047-.477c.003-.018.01-.037.014-.056A6 4 0 0 1 11 7zm-3 3a1 1 0 1 0 0 2 1 1 0 0 0 0-2zm3 0a1 1 0 1 0 0 2 1 1 0 0 0 0-2zm3 0a1 1 0 1 0 0 2 1 1 0 0 0 0-2z" fill="currentColor" color="#dfdfdf"/><circle cx="19" cy="18" r="2" fill="currentColor" color="#5294e2"/></svg>
